X:1
T:The Family Bible
T:The Family Bible
T:Thoro Harris
T:James Rowe, 1909
T:Public Domain Courtesy of the Cyber Hymnal™
T:Public Domain Courtesy of the Cyber Hymnal™
C:Thoro Harris
Z:Public Domain
Z:Courtesy of the Cyber Hymnal™
%%score 1 ( 2 3 )
L:1/8
Q:1/4=110
M:3/4
K:F
V:1 treble 
V:2 bass 
V:3 bass 
V:1
 F>G | A2 B2 A2 | G2 A2 G2 | F2 E2 D2 | C4 CC x2 | F2 F2 F2 | F2 E2 F2 | [CA]4 [=B,G]2 | %8
w: 1.~There’s a|pre- cious old|book which I|read ev- ery|day, For it|cheers me and|helps me a-|long life’s|
w: 2.~There’s a|won- der- ful|store- house by|Christ- ians pos-|sessed, Which sup-|plies all my|needs when by|foes op-|
w: 3.~There’s a|pre- cious old|book which I|val- ue and|love, For it|tells of a|beau- ti- ful|home a-|
 [_B,G]4 F>G | A2 B2 A2 | G2 A2 G2 | F2 [EG]2 [FA]2 | [FB]4 BB | =B4 B2 x2 | =B3 A G2 x | [Gd]6 | %16
w: way, And it|warns me when-|ev- er my|spir- it would|stray; ’Tis the|dear old|fam- i- ly|Bi-|
w: pressed, Gives me|com- fort and|joy, per- fect|rap- ture and|rest; ’Tis the|dear old|fam- i- ly|Bi-|
w: bove, And of|Je- sus who|died His great|mer- cy to|prove; ’Tis the|dear old|fam- i- ly|Bi-|
 [Gc]4 ||"^Refrain" [Gc][Fc] | [EG]4 [EG]2 | [EG]3 [DF] [EG]2 | [FA]6 | [FA]4 [Ad]2 | [FA]4 [GA]2 | %23
w: ble.|||||||
w: ble.|O the|dear old|fam- i- ly|Bi-|ble! My|pre- cious|
w: ble.|||||||
 [^FA]3 [F^G] [FA]2 | [GB]6 | [GB]4 [GB][DB] | [DB]2 [DA]2 [DG]2 | [B,D]4 [DG][DA] | %28
w: |||||
w: fam- i- ly|Bi-|ble! How it|com- forts my|soul When the|
w: |||||
 [DB]2 [FA]2 [EG]2 | !fermata![Fc]4 [FB]2 | [FA]4 [FB]2 | [EG]3 [CF] [CE]2 | [CG]6 x4 | [CF]4 |] %34
w: ||||||
w: sor- row- waves|roll, This|dear old|fam- i- ly|Bi-|ble!|
w: ||||||
V:2
 A,>B, | [F,,B,]2 [F,C]2 [F,B,]2 | [C,B,]2 [E,B,C]2 [C,E,B,]2 | [F,,A,]2 [=B,,F,^G,]2 [D,F,G,]2 | %4
w: ~ ~|~ ~ ~|~ ~ ~|~ ~ ~|
 A,4 [F,,F,]2 [F,A,][E,G,] | A,2 A,2 A,2 | A,2 B,2 D,2 | (z2 [D,F,]2) x2 | [C,E,]4 A,>B, | %9
w: ~ ~ ~ ~|* ~ ~|~ ~ ~||~ ~ ~|
 [F,,C]2 [F,D]2 [F,C]2 | [C,B,]2 [E,B,C]2 [C,E,B,]2 | [D,F,A,]2 [C,B,]2 [F,C]2 | [B,,D]4 D[A,,D] | %13
w: ~ ~ ~|~ ~ ~|~ ~ ~|~ ~ ~|
 (z [F,C]) =B,2 x4 | (z [F,C]) =B,2 x3 | F6 | [C,E]4 || [C,E][C,D] | [C,C]4 [C,C]2 | %19
w: * ~|* ~|~|~|~ ~|~ ~|
 [C,B,]3 [C,B,] [C,B,]2 | A,2 F,2 D2 | [F,C]4 [D,F]2 | [D,D]4 [E,^C]2 | [^F,D]3 [E,D] [D,C]2 | %24
w: ~ ~ ~|~ ~ ~|~ ~|Bi- ble|I read! ~|
 B,2 G,2 E2 | [G,D]4 [G,B,]G, | [G,,G,]2 [A,,^F,]2 [B,,G,]2 | [B,,G,]4 [B,,G,][A,,^F,] | %28
w: ~ ~ ~|~ ~ Bi-|ble I need!||
 [G,,G,]2 [C,A,]2 [B,,C]2 | !fermata![A,,_E]4 [B,,D]2 | [C,C]4 [C,G,]2 | [C,B,]3 [C,A,] [C,G,]2 | %32
w: ||||
 z2 x8 | [F,,F,A,]4 |] %34
w: ||
V:3
 x2 | x6 | x6 | x6 | F,,2 x6 | (D,^C,) (D,E,) (D,=C,) | (=B,,G,,) (B,,G,,) (B,,G,,) | (F,4 C,2) | %8
 x6 | x6 | x6 | x6 | x6 | ([G,,D]4 =B,,D,D,B,,) | ([G,,D]3 =B,, D,) (D,B,,) | (G,,2 A,,2 =B,,2) | %16
 x4 || x2 | x6 | x6 | F,6 | x6 | x6 | x6 | G,6 | x5 G, | x6 | x6 | x6 | x6 | x6 | x6 | %32
 ([C,B,]6 D,2) E,2 | x4 |] %34

